X:1
T:Hold the Fort
T:Hold the Fort
T:Philip Paul Bliss, 1870
T:Public Domain Courtesy of the Cyber Hymnal™
C:Philip Paul Bliss, 1870
Z:Public Domain
Z:Courtesy of the Cyber Hymnal™
%%score 1 ( 2 3 )
L:1/8
Q:1/4=85
M:2/4
K:D
V:1 treble 
V:2 bass 
V:3 bass 
V:1
 [FA]>[GB] [FA][DF] | [Fd]>[Ge] [Fd][GB] | [FA]>[GB] [FA][DF] | [CE]4 | [FA]>[GB] [FA][DF] | %5
w: 1.~Ho, my com- rades!|see the sig- nal|Wav- ing in the|sky!|Re- in- force- ments|
w: 2.~See the might- y|host ad- vanc- ing,|Sa- tan lead- ing|on;|Might- y ones a-|
w: 3.~See the glor- ious|ban- ner wav- ing!|Hear the trum- pet|blow!|In our lead- er’s|
w: 4.~Fierce and long the|bat- tle rag- es,|But our help is|near;|On- ward comes our|
 [Fd]>[Ge] [Fd][FB] | [Ec]>[Fd] [Ec][DB] | [CA]4 ||"^Refrain" [Fd]>[Fd] [Fd]>[Fd] | %9
w: now ap- pear- ing,|Vic- to- ry is|nigh.||
w: round us fall- ing,|Cour- age al- most|gone!|“Hold the fort, for|
w: name we tri- umph|O- ver ev- ’ry|foe.||
w: great com- mand- er,|Cheer, my com- rades,|cheer!||
 [Fd][FA] [DF][FA] | [GB]>[GB] [GB][Gd] | [Ec]4 | [Fd]>[Fd] [Fd][Fd] | [Ge][Gd] [Gc][GB] | %14
w: |||||
w: I am comi- ng,”|Je- sus sig- nals|still;|Wave the an- swer|back to Hea- ven,|
w: |||||
w: |||||
 [FA][FA] [GB]>[Gc] | [Fd]4 |] %16
w: ||
w: “By Thy grace we|will.”|
w: ||
w: ||
V:2
 [D,D]>[D,D] [D,D][D,A,] | [D,A,]>[D,A,] [D,A,][D,D] | [D,D]>[D,D] [D,D][F,A,] | A,4 | %4
 [D,D]>[D,D] [D,D][D,A,] | [D,A,]>[D,A,] [D,A,][D,D] | [E,A,]>[E,A,] [E,A,][E,^G,] | [A,,A,]4 || %8
 [D,A,]>[D,A,] [D,A,]>[D,A,] | [D,A,][D,D] [D,D][D,D] | [G,D]>[G,D] [G,D][G,B,] | A,4 | %12
 [D,A,]>A, [D,A,][D,A,] | [G,B,][G,B,] [G,C][G,D] | [A,D][A,D] [A,C]>[A,E] | [D,D]4 |] %16
V:3
 x4 | x4 | x4 | A,4 | x4 | x4 | x4 | x4 || x4 | x4 | x4 | A,4 | x4 | x4 | x4 | x4 |] %16

